X: 2190
T: Polonäs efter John Johansson
B: [[Notböcker/John Johanssons noter]] [[http://www.sormlandsmusikarkiv.se/noter/johansson_john/john_johansson.html|samling 2]], nr 39 (sida 58)
O: Södermanland
R: Polonäs
Z: Nils
M: 3/4
L: 1/16
K: G
G4 B4 d2f2 | g2b2 a2f2 g4 | e2d2 (cd)cB A2G2 | F2G2 (AG)FE DCB,A, |
G,4 B4 d2f2 | g2b2 afaf g4 | (ag)fe d2B2 c2e2 | (cB)AF A2G2 G4 ::
G2B2 B2AB (cB)AG | G2c2 c2Bc (dc)BA | G2B2 B2AB (cB)AG | G2FG (AG)FE D4 |
G2B2 (cB)AB cBAG | G2c2 (dc)Bc (dc)BA | (BG)AB (cd)ef g2Bd | cAFA A2G2 G4 :|
(:musicend:)
(:music:)
